src/public/assets/tokens/jgbp.svg

<svg width="24" height="24" viewBox="0 0 24 24" fill="none" xmlns="http://www.w3.org/2000/svg">
<path d="M13.2145 2.94145C12.6265 2.94145 12.0444 3.05853 11.5021 3.28586C10.9599 3.51319 10.4683 3.84622 10.0561 4.26553C9.64389 4.68484 9.3193 5.18203 9.10126 5.72809C8.88435 6.27135 8.77721 6.85217 8.786 7.437V12.143H7.5C6.94772 12.143 6.5 12.5907 6.5 13.143C6.5 13.6953 6.94772 14.143 7.5 14.143H8.786V17.714C8.786 17.8829 8.75274 18.0501 8.68811 18.2061C8.62348 18.3622 8.52876 18.5039 8.40934 18.6233C8.28992 18.7428 8.14816 18.8375 7.99213 18.9021C7.83611 18.9667 7.66888 19 7.5 19C6.94772 19 6.5 19.4477 6.5 20C6.5 20.5523 6.94772 21 7.5 21H16.643C17.1953 21 17.643 20.5523 17.643 20C17.643 19.4477 17.1953 19 16.643 19H10.5239L10.5359 18.9715C10.701 18.5728 10.786 18.1455 10.786 17.714V14.143H14.357C14.9093 14.143 15.357 13.6953 15.357 13.143C15.357 12.5907 14.9093 12.143 14.357 12.143H10.786V7.42901L10.7859 7.41193C10.7803 7.08951 10.8391 6.76921 10.9587 6.46973C11.0783 6.17025 11.2563 5.89758 11.4823 5.66762C11.7084 5.43766 11.978 5.25501 12.2754 5.13034C12.5728 5.00566 12.892 4.94145 13.2145 4.94145C13.537 4.94145 13.8562 5.00566 14.1536 5.13034C14.451 5.25501 14.7206 5.43766 14.9467 5.66762C15.1727 5.89758 15.3507 6.17025 15.4703 6.46973C15.5899 6.76921 15.6487 7.08951 15.6431 7.41193C15.6337 7.96414 16.0737 8.41943 16.6259 8.42886C17.1781 8.43829 17.6334 7.99829 17.6429 7.44608C17.6529 6.85818 17.5458 6.27416 17.3277 5.72809C17.1097 5.18203 16.7851 4.68484 16.3729 4.26553C15.9607 3.84623 15.4691 3.51319 14.9269 3.28586C14.3846 3.05853 13.8025 2.94145 13.2145 2.94145Z" fill="#0050db"/>
</svg>

<svg id="Слой_1" data-name="Слой 1" xmlns="http://www.w3.org/2000/svg" viewBox="0 0 24 24"><title>JGBPМонтажная область 1</title><path d="M13.21,2.94a4.4,4.4,0,0,0-1.71.35,4.29,4.29,0,0,0-1.44,1,4.22,4.22,0,0,0-1,1.46,4.32,4.32,0,0,0-.31,1.71v4.7H7.5a1,1,0,0,0,0,2H8.79v3.57a1.44,1.44,0,0,1-.1.5,1.42,1.42,0,0,1-.28.41A1.19,1.19,0,0,1,8,18.9a1.16,1.16,0,0,1-.49.1,1,1,0,0,0,0,2h9.14a1,1,0,0,0,0-2H10.52l0,0a3.37,3.37,0,0,0,.25-1.26V14.14h3.57a1,1,0,0,0,0-2H10.79V7.41A2.34,2.34,0,0,1,11,6.47a2.51,2.51,0,0,1,.52-.8,2.41,2.41,0,0,1,.8-.54,2.4,2.4,0,0,1,1.87,0,2.41,2.41,0,0,1,.8.54,2.51,2.51,0,0,1,.52.8,2.34,2.34,0,0,1,.17.94,1,1,0,0,0,1,1,1,1,0,0,0,1-1,4.37,4.37,0,0,0-.31-1.72,4.22,4.22,0,0,0-1-1.46,4.29,4.29,0,0,0-1.44-1A4.44,4.44,0,0,0,13.21,2.94Z"/></svg>
